X: 4430
T: "CAP AND BELLS" POLKA
C: Rose Smith
R: Polka
%R: polka
B: James Kerr "Merry Melodies" v.4 p.48 #430
Z: 2016 John Chambers <jc:trillian.mit.edu>
M: 2/4
L: 1/16
K: F
(3(dcA) |\
F2(3(dcA) F2cA | [c2E2][c2E2] z2GA |\
Bcd2 efg2 | a3 (3(ae^c) |\
A2(3(ge^c) A3g | f2d2 z2(3(dBG) |\
[1 E2d2c3B | A2c2 z2 :|[1 E2d2c3E | F6 H|:[K:=B]\
[K:C] GA |\
G6 GA | G6 GA |
Bcde fgab | c'gec GcBA | G2f2e3d |\
[1 c2e2 zedc | Bg^fe dc'ba | g2g2g2 :|\
[2 c2 c'4 GA | Bcde fgab | "_D.C."c'6 |:\
[K:Bb] "Trio."(3(FGF) |\
D2F2B3A | G4 zAB=B |
c2d2c3G | c6 ^c2 |\
d2e2d2c2 | B2A2 G4 | c4 c4 | c6 (3(FGF) |\
D2F2B3A | G4 zAB=B | c2d2c3G | c3 de |\
f2g2 f2ed | e2d2 e2ce | dBFd c2A2 | "_D.C."B6 :|

%%sep 1 1 500
%%sep 1 1 500

